**harm	**harte	**kern	**silbe	**kern	**silbe	**kern	**silbe	**kern	**silbe	**rhyme	**timestamp	**phrase	**leadinstrument
*M4/4	*M4/4	*ICvox	*	*ICvox	*	*ICvox	*	*ICvox	*	*	*	*	*
*	*	*VRlead	*	*VRharmonize*VRresponse	*	*VRharmonize*VRresponse	*	*VRharmonize	*	*	*	*	*
*	*	*Hstimme	*	*Nstimme	*	*Nstimme	*	*Nstimme	*	*	*	*	*
*G:	*G:	*G:	*	*G:	*	*G:	*	*G:	*	*	*G:	*G:	*G:
*	*	*M4/4	*	*M4/4	*	*M4/4	*	*M4/4	*	*	*	*	*
*	*	*clefF4	*	*clefG2	*	*clefG2	*	*clefG2	*	*	*	*	*
1r;	N	r;	.	r;	.	r;	.	r;	.	.	0	.	r
=1	=1	=1	=1	=1	=1	=1	=1	=1	=1	=1	=1	=1	=1
*>Letter>A	*>Letter>A	*>Letter>A	*>Letter>A	*>Letter>A	*>Letter>A	*>Letter>A	*>Letter>A	*>Letter>A	*>Letter>A	*>Letter>A	*>Letter>A	*>Letter>A	*>Letter>A
*>Label>Intro	*>Label>Intro	*>Label>Intro	*>Label>Intro	*>Label>Intro	*>Label>Intro	*>Label>Intro	*>Label>Intro	*>Label>Intro	*>Label>Intro	*>Label>Intro	*>Label>Intro	*>Label>Intro	*>Label>Intro
2I	G:maj	1r	.	1r	.	1r	.	1r	.	.	0.418	newline	guitar
2I	G:maj(9)	.	.	.	.	.	.	.	.	.	2.055	.	guitar
=2	=2	=2	=2	=2	=2	=2	=2	=2	=2	=2	=2	=2	=2
2I	G:maj	1r	.	1r	.	1r	.	1r	.	.	3.692	.	guitar
2I	G:maj(9)	.	.	.	.	.	.	.	.	.	5.33	.	guitar
=3	=3	=3	=3	=3	=3	=3	=3	=3	=3	=3	=3	=3	=3
2vi7	E:min9	1r	.	1r	.	1r	.	1r	.	.	6.967	.	guitar
2vi7	E:min7	.	.	.	.	.	.	.	.	.	8.604	.	guitar
=4	=4	=4	=4	=4	=4	=4	=4	=4	=4	=4	=4	=4	=4
2vi7	E:min9	1r	.	1r	.	1r	.	1r	.	.	10.241	.	guitar
2vi7	E:min7	.	.	.	.	.	.	.	.	.	11.879	.	guitar
=5	=5	=5	=5	=5	=5	=5	=5	=5	=5	=5	=5	=5	=5
*>Letter>B	*>Letter>B	*>Letter>B	*>Letter>B	*>Letter>B	*>Letter>B	*>Letter>B	*>Letter>B	*>Letter>B	*>Letter>B	*>Letter>B	*>Letter>B	*>Letter>B	*>Letter>B
*>Label>Verse	*>Label>Verse	*>Label>Verse	*>Label>Verse	*>Label>Verse	*>Label>Verse	*>Label>Verse	*>Label>Verse	*>Label>Verse	*>Label>Verse	*>Label>Verse	*>Label>Verse	*>Label>Verse	*>Label>Verse
2I	G:maj	4r	.	1r	.	1r	.	1r	.	.	13.516	newline	voice
.	.	8DD	Hush	.	.	.	.	.	.	.	.	.	.
.	.	8D	now	.	.	.	.	.	.	.	.	.	.
2I	G:maj(9)	8D	don't	.	.	.	.	.	.	.	15.226	.	voice
.	.	16BB	you	.	.	.	.	.	.	.	.	.	.
.	.	8D	cry	.	.	.	.	.	.	A	.	.	.
.	.	8.BB	_	.	.	.	.	.	.	.	.	.	.
=6	=6	=6	=6	=6	=6	=6	=6	=6	=6	=6	=6	=6	=6
2I	G:maj	2r	.	1r	.	1r	.	1r	.	.	16.937	.	voice
2I	G:maj(9)	8D	Wipe	.	.	.	.	.	.	.	18.648	.	voice
.	.	16D	a-	.	.	.	.	.	.	.	.	.	.
.	.	8.D	-way	.	.	.	.	.	.	.	.	.	.
.	.	16E	the	.	.	.	.	.	.	.	.	.	.
.	.	[16BB	tear	.	.	.	.	.	.	B	.	.	.
=7	=7	=7	=7	=7	=7	=7	=7	=7	=7	=7	=7	=7	=7
2vi7	E:min9	8BB]	_	1r	.	1r	.	1r	.	.	20.358	.	voice
.	.	8BB	drop	.	.	.	.	.	.	.	.	.	.
.	.	8BB	from	.	.	.	.	.	.	.	.	.	.
.	.	16AA	your	.	.	.	.	.	.	.	.	.	.
.	.	[16GG	eye	.	.	.	.	.	.	A	.	.	.
2vi7	E:min7	8GG]	_	.	.	.	.	.	.	.	22.069	.	voice
.	.	8r	.	.	.	.	.	.	.	.	.	.	.
.	.	4r	.	.	.	.	.	.	.	.	.	.	.
=8	=8	=8	=8	=8	=8	=8	=8	=8	=8	=8	=8	=8	=8
2vi7	E:min9	1r	.	1r	.	1r	.	1r	.	.	23.78	.	voice
2vi7	E:min7	.	.	.	.	.	.	.	.	.	25.49	.	voice
=9	=9	=9	=9	=9	=9	=9	=9	=9	=9	=9	=9	=9	=9
2I	G:maj	8.r	.	1r	.	1r	.	1r	.	.	27.201	newline	voice
.	.	16DD	You're	.	.	.	.	.	.	.	.	.	.
.	.	8D	ly-	.	.	.	.	.	.	.	.	.	.
.	.	8D	-in'	.	.	.	.	.	.	.	.	.	.
2I	G:maj(9)	16D	safe	.	.	.	.	.	.	.	28.863	.	voice
.	.	16BB	_	.	.	.	.	.	.	.	.	.	.
.	.	16BB	in	.	.	.	.	.	.	.	.	.	.
.	.	8D	bed	.	.	.	.	.	.	C	.	.	.
.	.	8.E	_	.	.	.	.	.	.	.	.	.	.
=10	=10	=10	=10	=10	=10	=10	=10	=10	=10	=10	=10	=10	=10
2I	G:maj	4.r	.	1r	.	1r	.	1r	.	.	30.524	.	voice
.	.	16DD	It	.	.	.	.	.	.	.	.	.	.
.	.	16DD	was	.	.	.	.	.	.	.	.	.	.
2I	G:maj(9)	8D	all	.	.	.	.	.	.	.	32.186	.	voice
.	.	16D	a	.	.	.	.	.	.	.	.	.	.
.	.	8.D	bad	.	.	.	.	.	.	.	.	.	.
.	.	8E	dream	.	.	.	.	.	.	.	.	.	.
=11	=11	=11	=11	=11	=11	=11	=11	=11	=11	=11	=11	=11	=11
2vi7	E:min9	16BB	spin-	1r	.	1r	.	1r	.	.	33.847	.	voice
.	.	8.BB	-ning	.	.	.	.	.	.	.	.	.	.
.	.	16r	.	.	.	.	.	.	.	.	.	.	.
.	.	16~BB	in	.	.	.	.	.	.	.	.	.	.
.	.	16~FF#	your	.	.	.	.	.	.	.	.	.	.
.	.	16~GG	head	.	.	.	.	.	.	C	.	.	.
2vi7	E:min7	4r	.	.	.	.	.	.	.	.	35.509	.	voice
.	.	4r	.	.	.	.	.	.	.	.	.	.	.
=12	=12	=12	=12	=12	=12	=12	=12	=12	=12	=12	=12	=12	=12
2vi7	E:min9	1r	.	1r	.	1r	.	1r	.	.	37.171	.	voice
2vi7	E:min7	.	.	.	.	.	.	.	.	.	38.832	.	voice
=13	=13	=13	=13	=13	=13	=13	=13	=13	=13	=13	=13	=13	=13
2IV	C:maj	8.r	.	1r	.	1r	.	1r	.	.	40.494	newline	voice
.	.	16EE	Your	.	.	.	.	.	.	.	.	.	.
.	.	8E	mind	.	.	.	.	.	.	.	.	.	.
.	.	8E	tricked	.	.	.	.	.	.	.	.	.	.
2IV	C:maj(9)	16E	you	.	.	.	.	.	.	.	42.207	.	voice
.	.	16D	_	.	.	.	.	.	.	.	.	.	.
.	.	16D	to	.	.	.	.	.	.	.	.	.	.
.	.	8.E	feel	.	.	.	.	.	.	.	.	.	.
.	.	16F#	the	.	.	.	.	.	.	.	.	.	.
.	.	[16E	pain	.	.	.	.	.	.	D	.	.	.
=14	=14	=14	=14	=14	=14	=14	=14	=14	=14	=14	=14	=14	=14
2IV	C:maj	8E]	_	1r	.	1r	.	1r	.	.	43.92	.	voice
.	.	8r	.	.	.	.	.	.	.	.	.	.	.
.	.	8r	.	.	.	.	.	.	.	.	.	.	.
.	.	16r	.	.	.	.	.	.	.	.	.	.	.
.	.	16~GG	of	.	.	.	.	.	.	.	.	.	.
2IV	C:maj(9)	8E	some-	.	.	.	.	.	.	.	45.633	.	voice
.	.	8E	-one	.	.	.	.	.	.	.	.	.	.
.	.	16E	close	.	.	.	.	.	.	.	.	.	.
.	.	16C	_	.	.	.	.	.	.	.	.	.	.
.	.	16C	to	.	.	.	.	.	.	.	.	.	.
.	.	[16C	you	.	.	.	.	.	.	.	.	.	.
=15	=15	=15	=15	=15	=15	=15	=15	=15	=15	=15	=15	=15	=15
2ii7	A:min7	8C]	_	1r	.	1r	.	1r	.	.	47.347	.	voice
.	.	16C	leav-	.	.	.	.	.	.	.	.	.	.
.	.	8.C	-ing	.	.	.	.	.	.	.	.	.	.
.	.	16D	the	.	.	.	.	.	.	.	.	.	.
.	.	[16AA	game	.	.	.	.	.	.	D	.	.	.
2ii7	A:min11	4AA]	_	.	.	.	.	.	.	.	49.06	.	voice
.	.	8.r	.	.	.	.	.	.	.	.	.	.	.
.	.	16~GG	of	.	.	.	.	.	.	.	.	.	.
=16	=16	=16	=16	=16	=16	=16	=16	=16	=16	=16	=16	=16	=16
2ii7	A:min7	8~AA	life	1r	.	1r	.	1r	.	.	50.773	.	voice
.	.	8r	.	.	.	.	.	.	.	.	.	.	.
.	.	4r	.	.	.	.	.	.	.	.	.	.	.
2ii7	A:min11	2r	.	.	.	.	.	.	.	.	52.486	.	voice
=17	=17	=17	=17	=17	=17	=17	=17	=17	=17	=17	=17	=17	=17
2IV	C:maj	8.r	.	1r	.	1r	.	1r	.	.	54.199	newline	voice
.	.	16EE	So	.	.	.	.	.	.	.	.	.	.
.	.	8E	here	.	.	.	.	.	.	.	.	.	.
.	.	16D	it	.	.	.	.	.	.	.	.	.	.
.	.	8.E	is	.	.	.	.	.	.	.	.	.	.
2IV	C:maj(9)	.	.	.	.	.	.	.	.	.	56.013	.	voice
.	.	16r	.	.	.	.	.	.	.	.	.	.	.
.	.	16D	A-	.	.	.	.	.	.	.	.	.	.
.	.	8E	-noth-	.	.	.	.	.	.	.	.	.	.
.	.	16F#	-er	.	.	.	.	.	.	.	.	.	.
.	.	[16E	chance	.	.	.	.	.	.	.	.	.	.
=18	=18	=18	=18	=18	=18	=18	=18	=18	=18	=18	=18	=18	=18
2IV	C:maj	8E]	_	1r	.	1r	.	1r	.	.	57.826	.	voice
.	.	8r	.	.	.	.	.	.	.	.	.	.	.
.	.	4r	.	.	.	.	.	.	.	.	.	.	.
2IV	C:maj(9)	8E	Wide	.	.	.	.	.	.	.	59.639	.	voice
.	.	16E	a-	.	.	.	.	.	.	.	.	.	.
.	.	8E	-wake	.	.	.	.	.	.	.	.	.	.
.	.	16r	.	.	.	.	.	.	.	.	.	.	.
.	.	16G	you	.	.	.	.	.	.	.	.	.	.
.	.	16G	face	.	.	.	.	.	.	.	.	.	.
=19	=19	=19	=19	=19	=19	=19	=19	=19	=19	=19	=19	=19	=19
2ii7	A:min7	8A	_	1r	.	1r	.	1r	.	.	61.452	.	voice
.	.	16A	the	.	.	.	.	.	.	.	.	.	.
.	.	8.A	day	.	.	.	.	.	.	.	.	.	.
.	.	16r	.	.	.	.	.	.	.	.	.	.	.
.	.	16C	The	.	.	.	.	.	.	.	.	.	.
2ii7	A:min11	8E	dream	.	.	.	.	.	.	.	63.265	.	voice
.	.	8F	is	.	.	.	.	.	.	.	.	.	.
.	.	8E	o-	.	.	.	.	.	.	.	.	.	.
.	.	8F	-ver	.	.	.	.	.	.	.	.	.	.
=20	=20	=20	=20	=20	=20	=20	=20	=20	=20	=20	=20	=20	=20
1I	G:5	4r	.	1r	.	1r	.	1r	.	.	65.078	.	voice
.	.	8.r	.	.	.	.	.	.	.	.	.	.	.
.	.	16~DD	Or	.	.	.	.	.	.	.	.	.	.
.	.	16~GG	has	.	.	.	.	.	.	.	.	.	.
.	.	8~GG	it	.	.	.	.	.	.	.	.	.	.
.	.	16~GG	just	.	.	.	.	.	.	.	.	.	.
.	.	8r	.	.	.	.	.	.	.	.	.	.	.
.	.	16~BB	be-	.	.	.	.	.	.	.	.	.	.
.	.	16~D	-gun?	.	.	.	.	.	.	.	.	.	.
=21	=21	=21	=21	=21	=21	=21	=21	=21	=21	=21	=21	=21	=21
*>Letter>A	*>Letter>A	*>Letter>A	*>Letter>A	*>Letter>A	*>Letter>A	*>Letter>A	*>Letter>A	*>Letter>A	*>Letter>A	*>Letter>A	*>Letter>A	*>Letter>A	*>Letter>A
*>Label>Trans	*>Label>Trans	*>Label>Trans	*>Label>Trans	*>Label>Trans	*>Label>Trans	*>Label>Trans	*>Label>Trans	*>Label>Trans	*>Label>Trans	*>Label>Trans	*>Label>Trans	*>Label>Trans	*>Label>Trans
2I	G:maj	1r	.	1r	.	1r	.	1r	.	.	68.705	newline	guitar
2I	G:maj(9)	.	.	.	.	.	.	.	.	.	70.419	.	guitar
=22	=22	=22	=22	=22	=22	=22	=22	=22	=22	=22	=22	=22	=22
2I	G:maj	1r	.	1r	.	1r	.	1r	.	.	72.134	.	guitar
2I	G:maj(9)	.	.	.	.	.	.	.	.	.	73.848	.	guitar
=23	=23	=23	=23	=23	=23	=23	=23	=23	=23	=23	=23	=23	=23
2vi7	E:min9	1r	.	1r	.	1r	.	1r	.	.	75.562	.	guitar
2vi7	E:min7	.	.	.	.	.	.	.	.	.	77.277	.	guitar
=24	=24	=24	=24	=24	=24	=24	=24	=24	=24	=24	=24	=24	=24
2vi7	E:min9	1r	.	1r	.	1r	.	1r	.	.	78.991	.	guitar
2vi7	E:min7	.	.	.	.	.	.	.	.	.	80.706	.	guitar
=25	=25	=25	=25	=25	=25	=25	=25	=25	=25	=25	=25	=25	=25
*>Letter>B	*>Letter>B	*>Letter>B	*>Letter>B	*>Letter>B	*>Letter>B	*>Letter>B	*>Letter>B	*>Letter>B	*>Letter>B	*>Letter>B	*>Letter>B	*>Letter>B	*>Letter>B
*>Label>Verse	*>Label>Verse	*>Label>Verse	*>Label>Verse	*>Label>Verse	*>Label>Verse	*>Label>Verse	*>Label>Verse	*>Label>Verse	*>Label>Verse	*>Label>Verse	*>Label>Verse	*>Label>Verse	*>Label>Verse
2I	G:maj	4.r	.	1r	.	1r	.	1r	.	.	82.42	newline	voice
.	.	16B	There's	.	.	.	.	.	.	.	.	.	.
.	.	16d	a	.	.	.	.	.	.	.	.	.	.
2I	G:maj(9)	8d	place	.	.	.	.	.	.	.	84.138	.	voice
.	.	8B	I	.	.	.	.	.	.	.	.	.	.
.	.	8d	like	.	.	.	.	.	.	.	.	.	.
.	.	16e	to	.	.	.	.	.	.	.	.	.	.
.	.	16d	hide	.	.	.	.	.	.	A	.	.	.
=26	=26	=26	=26	=26	=26	=26	=26	=26	=26	=26	=26	=26	=26
2I	G:maj	8B	_	1r	.	1r	.	1r	.	.	85.856	.	voice
.	.	8r	.	.	.	.	.	.	.	.	.	.	.
.	.	8.r	.	.	.	.	.	.	.	.	.	.	.
.	.	16~G	A	.	.	.	.	.	.	.	.	.	.
2I	G:maj(9)	8d	door	.	.	.	.	.	.	.	87.574	.	voice
.	.	8d	way	.	.	.	.	.	.	.	.	.	.
.	.	16d	that	.	.	.	.	.	.	.	.	.	.
.	.	16d	I	.	.	.	.	.	.	.	.	.	.
.	.	8e	_	.	.	.	.	.	.	.	.	.	.
=27	=27	=27	=27	=27	=27	=27	=27	=27	=27	=27	=27	=27	=27
2vi7	E:min9	8B	run	1r	.	1r	.	1r	.	.	89.292	.	voice
.	.	[8B	through	.	.	.	.	.	.	.	.	.	.
.	.	16B]	_	.	.	.	.	.	.	.	.	.	.
.	.	16B	in	.	.	.	.	.	.	.	.	.	.
.	.	16A	the	.	.	.	.	.	.	.	.	.	.
.	.	[16G	night	.	.	.	.	.	.	A	.	.	.
2vi7	E:min7	4G]	_	.	.	.	.	.	.	.	91.009	.	voice
.	.	4r	.	.	.	.	.	.	.	.	.	.	.
=28	=28	=28	=28	=28	=28	=28	=28	=28	=28	=28	=28	=28	=28
2vi7	E:min9	1r	.	1r	.	1r	.	1r	.	.	92.727	.	voice
2vi7	E:min7	.	.	.	.	.	.	.	.	.	94.445	.	voice
=29	=29	=29	=29	=29	=29	=29	=29	=29	=29	=29	=29	=29	=29
2I	G:maj	8.r	.	1r	.	1r	.	1r	.	.	96.163	newline	voice
.	.	16BB	Re-	.	.	.	.	.	.	.	.	.	.
.	.	8D	-lax	.	.	.	.	.	.	.	.	.	.
.	.	16d	child	.	.	.	.	.	.	.	.	.	.
.	.	16B	_	.	.	.	.	.	.	.	.	.	.
2I	G:maj(9)	8d	you	.	.	.	.	.	.	.	97.879	.	voice
.	.	16B	were	.	.	.	.	.	.	.	.	.	.
.	.	8d	there	.	.	.	.	.	.	E	.	.	.
.	.	8.e	_	.	.	.	.	.	.	.	.	.	.
=30	=30	=30	=30	=30	=30	=30	=30	=30	=30	=30	=30	=30	=30
2I	G:maj	4r	.	1r	.	1r	.	1r	.	.	99.594	.	voice
.	.	8.r	.	.	.	.	.	.	.	.	.	.	.
.	.	16~D	but	.	.	.	.	.	.	.	.	.	.
2I	G:maj(9)	8d	on-	.	.	.	.	.	.	.	101.31	.	voice
.	.	8d	-ly	.	.	.	.	.	.	.	.	.	.
.	.	16d	did-	.	.	.	.	.	.	.	.	.	.
.	.	16d	-'nt	.	.	.	.	.	.	.	.	.	.
.	.	8e	_	.	.	.	.	.	.	.	.	.	.
=31	=31	=31	=31	=31	=31	=31	=31	=31	=31	=31	=31	=31	=31
2vi7	E:min9	16B	re-	1r	.	1r	.	1r	.	.	103.025	.	voice
.	.	16A	-a-	.	.	.	.	.	.	.	.	.	.
.	.	4B	-lize	.	.	.	.	.	.	.	.	.	.
.	.	16r	.	.	.	.	.	.	.	.	.	.	.
.	.	16A	and	.	.	.	.	.	.	.	.	.	.
2vi7	E:min7	16B	you	.	.	.	.	.	.	.	104.741	.	voice
.	.	8A	were	.	.	.	.	.	.	.	.	.	.
.	.	8.B	scared	.	.	.	.	.	.	E	.	.	.
.	.	8r	.	.	.	.	.	.	.	.	.	.	.
=32	=32	=32	=32	=32	=32	=32	=32	=32	=32	=32	=32	=32	=32
2vi7	E:min9	1r	.	1r	.	1r	.	1r	.	.	106.456	.	voice
2vi7	E:min7	.	.	.	.	.	.	.	.	.	108.172	.	voice
=33	=33	=33	=33	=33	=33	=33	=33	=33	=33	=33	=33	=33	=33
2IV	C:maj	4.r	.	1r	.	1r	.	1r	.	.	109.887	newline	voice
.	.	16c	It's	.	.	.	.	.	.	.	.	.	.
.	.	16c	a	.	.	.	.	.	.	.	.	.	.
2IV	C:maj(9)	8e	place	.	.	.	.	.	.	.	111.602	.	voice
.	.	8d	where	.	.	.	.	.	.	.	.	.	.
.	.	8e	you	.	.	.	.	.	.	.	.	.	.
.	.	16f#	will	.	.	.	.	.	.	.	.	.	.
.	.	[16e	learn	.	.	.	.	.	.	.	.	.	.
=34	=34	=34	=34	=34	=34	=34	=34	=34	=34	=34	=34	=34	=34
2IV	C:maj	4e]	_	1r	.	1r	.	1r	.	.	113.317	.	voice
.	.	8.r	.	.	.	.	.	.	.	.	.	.	.
.	.	16c	to	.	.	.	.	.	.	.	.	.	.
2IV	C:maj(9)	8e	face	.	.	.	.	.	.	.	115.032	.	voice
.	.	16d	your	.	.	.	.	.	.	.	.	.	.
.	.	16e	fears	.	.	.	.	.	.	B	.	.	.
.	.	8d	_	.	.	.	.	.	.	.	.	.	.
.	.	16r	.	.	.	.	.	.	.	.	.	.	.
.	.	16c	re-	.	.	.	.	.	.	.	.	.	.
=35	=35	=35	=35	=35	=35	=35	=35	=35	=35	=35	=35	=35	=35
2ii7	A:min7	8e	-trace	1r	.	1r	.	1r	.	.	116.748	.	voice
.	.	16d	the	.	.	.	.	.	.	.	.	.	.
.	.	16e	years	.	.	.	.	.	.	B	.	.	.
.	.	8d	_	.	.	.	.	.	.	.	.	.	.
.	.	16r	.	.	.	.	.	.	.	.	.	.	.
.	.	16G	and	.	.	.	.	.	.	.	.	.	.
2ii7	A:min11	8c	ride	.	.	.	.	.	.	.	118.463	.	voice
.	.	16c	the	.	.	.	.	.	.	.	.	.	.
.	.	8c	whims	.	.	.	.	.	.	.	.	.	.
.	.	16c	in	.	.	.	.	.	.	.	.	.	.
.	.	16d	your	.	.	.	.	.	.	.	.	.	.
.	.	[16A	mind	.	.	.	.	.	.	A	.	.	.
=36	=36	=36	=36	=36	=36	=36	=36	=36	=36	=36	=36	=36	=36
2ii7	A:min7	4A]	_	1r	.	1r	.	1r	.	.	120.178	.	voice
.	.	4r	.	.	.	.	.	.	.	.	.	.	.
2ii7	A:min11	2r	.	.	.	.	.	.	.	.	121.893	.	voice
=37	=37	=37	=37	=37	=37	=37	=37	=37	=37	=37	=37	=37	=37
2IV	C:maj	8.r	.	1r	.	1r	.	1r	.	.	123.608	newline	voice
.	.	16~G	Co-	.	.	.	.	.	.	.	.	.	.
.	.	8e	-mman-	.	.	.	.	.	.	.	.	.	.
.	.	8d	-ding	.	.	.	.	.	.	.	.	.	.
2IV	C:maj(9)	8e	in	.	.	.	.	.	.	.	125.321	.	voice
.	.	16d	a-	.	.	.	.	.	.	.	.	.	.
.	.	8.e	-no-	.	.	.	.	.	.	.	.	.	.
.	.	16f#	-ther	.	.	.	.	.	.	.	.	.	.
.	.	[16e	world	.	.	.	.	.	.	.	.	.	.
=38	=38	=38	=38	=38	=38	=38	=38	=38	=38	=38	=38	=38	=38
2IV	C:maj	4e]	_	1r	.	1r	.	1r	.	.	127.033	.	voice
.	.	4r	.	.	.	.	.	.	.	.	.	.	.
2IV	C:maj(9)	8g	Sud-	.	.	.	.	.	.	.	128.746	.	voice
.	.	16g	-den-	.	.	.	.	.	.	.	.	.	.
.	.	8.g	-ly	.	.	.	.	.	.	F	.	.	.
.	.	16r	.	.	.	.	.	.	.	.	.	.	.
.	.	16g	you	.	.	.	.	.	.	.	.	.	.
=39	=39	=39	=39	=39	=39	=39	=39	=39	=39	=39	=39	=39	=39
2ii7	A:min7	8a	hear	1r	.	1r	.	1r	.	B	130.459	.	voice
.	.	8a	and	.	.	.	.	.	.	.	.	.	.
.	.	8a	see	.	.	.	.	.	.	F	.	.	.
.	.	16r	.	.	.	.	.	.	.	.	.	.	.
.	.	16d	this	.	.	.	.	.	.	.	.	.	.
2ii7	A:min11	8e	ma-	.	.	.	.	.	.	.	132.171	.	voice
.	.	8e	-gic	.	.	.	.	.	.	.	.	.	.
.	.	8e	new	.	.	.	.	.	.	.	.	.	.
.	.	16f#	di-	.	.	.	.	.	.	.	.	.	.
.	.	[16e	-men-	.	.	.	.	.	.	.	.	.	.
=40	=40	=40	=40	=40	=40	=40	=40	=40	=40	=40	=40	=40	=40
1ii7	A:min7	8e]	_	1r	.	1r	.	1r	.	.	133.884	.	voice
.	.	8e	-sion	.	.	.	.	.	.	.	.	.	.
.	.	4r	.	.	.	.	.	.	.	.	.	.	.
.	.	2r	.	.	.	.	.	.	.	.	.	.	.
=41	=41	=41	=41	=41	=41	=41	=41	=41	=41	=41	=41	=41	=41
*>Letter>C	*>Letter>C	*>Letter>C	*>Letter>C	*>Letter>C	*>Letter>C	*>Letter>C	*>Letter>C	*>Letter>C	*>Letter>C	*>Letter>C	*>Letter>C	*>Letter>C	*>Letter>C
*>Label>Chorus	*>Label>Chorus	*>Label>Chorus	*>Label>Chorus	*>Label>Chorus	*>Label>Chorus	*>Label>Chorus	*>Label>Chorus	*>Label>Chorus	*>Label>Chorus	*>Label>Chorus	*>Label>Chorus	*>Label>Chorus	*>Label>Chorus
1V	D:maj	1r	.	1f#	I	1d	I	1r	.	.	137.309	newline	voice
=42	=42	=42	=42	=42	=42	=42	=42	=42	=42	=42	=42	=42	=42
1IV	C:maj6(9)	4r	.	4g	_	4c	_	1r	.	.	140.743	.	voice
.	.	8r	.	4r	.	4r	.	.	.	.	.	.	.
.	.	16c	will	.	.	.	.	.	.	.	.	.	.
.	.	16e	be	.	.	.	.	.	.	.	.	.	.
.	.	8e	watch-	2r	.	2r	.	.	.	.	.	.	.
.	.	16e	-ing	.	.	.	.	.	.	f	.	.	.
.	.	8.d	o-	.	.	.	.	.	.	.	.	.	.
.	.	16c	-ver	.	.	.	.	.	.	.	.	.	.
.	.	[16d	you	.	.	.	.	.	.	G	.	.	.
=43	=43	=43	=43	=43	=43	=43	=43	=43	=43	=43	=43	=43	=43
1V	D:maj	16d]	_	1f#	I	1d	I	1r	.	.	144.177	.	voice
.	.	16c	_	.	.	.	.	.	.	.	.	.	.
.	.	8B	_	.	.	.	.	.	.	.	.	.	.
.	.	4r	.	.	.	.	.	.	.	.	.	.	.
.	.	2r	.	.	.	.	.	.	.	.	.	.	.
=44	=44	=44	=44	=44	=44	=44	=44	=44	=44	=44	=44	=44	=44
1IV	C:maj6(9)	4r	.	4g	_	4c	_	1r	.	.	147.611	.	voice
.	.	16r	.	4r	.	4r	.	.	.	.	.	.	.
.	.	16~G	am	.	.	.	.	.	.	.	.	.	.
.	.	16e	gon-	.	.	.	.	.	.	.	.	.	.
.	.	16e	-na	.	.	.	.	.	.	.	.	.	.
.	.	8.e	help	2r	.	2r	.	.	.	.	.	.	.
.	.	16d	you	.	.	.	.	.	.	.	.	.	.
.	.	8d	see	.	.	.	.	.	.	F	.	.	.
.	.	16c	it	.	.	.	.	.	.	.	.	.	.
.	.	[16d	through	.	.	.	.	.	.	G	.	.	.
=45	=45	=45	=45	=45	=45	=45	=45	=45	=45	=45	=45	=45	=45
1V	D:maj	16d]	_	1f#	I	1d	I	1r	.	.	151.045	newline	voice
.	.	16c	_	.	.	.	.	.	.	.	.	.	.
.	.	8B	_	.	.	.	.	.	.	.	.	.	.
.	.	4r	.	.	.	.	.	.	.	.	.	.	.
.	.	2r	.	.	.	.	.	.	.	.	.	.	.
=46	=46	=46	=46	=46	=46	=46	=46	=46	=46	=46	=46	=46	=46
1IV	C:maj6(9)	4r	.	4g	_	4c	_	1r	.	.	154.477	.	voice
.	.	8r	.	4r	.	4r	.	.	.	.	.	.	.
.	.	16c	Will	.	.	.	.	.	.	.	.	.	.
.	.	16e	pro-	.	.	.	.	.	.	.	.	.	.
.	.	8e	-tect	2r	.	2r	.	.	.	.	.	.	.
.	.	8e	you	.	.	.	.	.	.	.	.	.	.
.	.	8e	in	.	.	.	.	.	.	.	.	.	.
.	.	16f#	the	.	.	.	.	.	.	.	.	.	.
.	.	[16d	night	.	.	.	.	.	.	A	.	.	.
=47	=47	=47	=47	=47	=47	=47	=47	=47	=47	=47	=47	=47	=47
1V	D:maj	16d]	_	1f#	I	1d	I	1r	.	.	157.91	.	voice
.	.	16c	_	.	.	.	.	.	.	.	.	.	.
.	.	4B	_	.	.	.	.	.	.	.	.	.	.
.	.	8r	.	.	.	.	.	.	.	.	.	.	.
.	.	2r	.	.	.	.	.	.	.	.	.	.	.
=48	=48	=48	=48	=48	=48	=48	=48	=48	=48	=48	=48	=48	=48
1IV	C:maj6(9)	4r	.	4g	_	4c	_	1r	.	.	161.342	.	voice
.	.	8.r	.	4r	.	4r	.	.	.	.	.	.	.
.	.	16~D	am	.	.	.	.	.	.	.	.	.	.
.	.	16c	smi-	2r	.	2r	.	.	.	.	.	.	.
.	.	16B	_	.	.	.	.	.	.	.	.	.	.
.	.	8B	-ling	.	.	.	.	.	.	.	.	.	.
.	.	8G	next	.	.	.	.	.	.	.	.	.	.
.	.	16E	to	.	.	.	.	.	.	.	.	.	.
.	.	[16G	you	.	.	.	.	.	.	G	.	.	.
=49	=49	=49	=49	=49	=49	=49	=49	=49	=49	=49	=49	=49	=49
1IV	C:maj6(9)	4G]	_	1r	.	1r	.	1r	.	.	164.774	.	voice
.	.	8.r	.	.	.	.	.	.	.	.	.	.	.
.	.	16~E	in	.	.	.	.	.	.	.	.	.	.
.	.	8A	si-	.	.	.	.	.	.	.	.	.	.
.	.	16A	-lent	.	.	.	.	.	.	.	.	.	.
.	.	16G	lu-	.	.	.	.	.	.	.	.	.	.
.	.	16A	-ci-	.	.	.	.	.	.	.	.	.	.
.	.	16G	-di-	.	.	.	.	.	.	.	.	.	.
.	.	16A	-ty	.	.	.	.	.	.	F	.	.	.
.	.	[16G	_	.	.	.	.	.	.	.	.	.	.
=50	=50	=50	=50	=50	=50	=50	=50	=50	=50	=50	=50	=50	=50
*>Letter>A2	*>Letter>A2	*>Letter>A2	*>Letter>A2	*>Letter>A2	*>Letter>A2	*>Letter>A2	*>Letter>A2	*>Letter>A2	*>Letter>A2	*>Letter>A2	*>Letter>A2	*>Letter>A2	*>Letter>A2
*>Label>Trans	*>Label>Trans	*>Label>Trans	*>Label>Trans	*>Label>Trans	*>Label>Trans	*>Label>Trans	*>Label>Trans	*>Label>Trans	*>Label>Trans	*>Label>Trans	*>Label>Trans	*>Label>Trans	*>Label>Trans
2I	G:maj	4G]	_	1r	.	1r	.	1r	.	.	168.207	newline	guitar
.	.	4r	.	.	.	.	.	.	.	.	.	.	.
2I	G:maj(9)	2r	.	.	.	.	.	.	.	.	169.91	.	guitar
=51	=51	=51	=51	=51	=51	=51	=51	=51	=51	=51	=51	=51	=51
2I	G:maj	1r	.	1r	.	1r	.	1r	.	.	171.614	.	guitar
2I	G:maj(9)	.	.	.	.	.	.	.	.	.	173.318	.	guitar
=52	=52	=52	=52	=52	=52	=52	=52	=52	=52	=52	=52	=52	=52
*>Letter>D	*>Letter>D	*>Letter>D	*>Letter>D	*>Letter>D	*>Letter>D	*>Letter>D	*>Letter>D	*>Letter>D	*>Letter>D	*>Letter>D	*>Letter>D	*>Letter>D	*>Letter>D
*>Label>Bridge	*>Label>Bridge	*>Label>Bridge	*>Label>Bridge	*>Label>Bridge	*>Label>Bridge	*>Label>Bridge	*>Label>Bridge	*>Label>Bridge	*>Label>Bridge	*>Label>Bridge	*>Label>Bridge	*>Label>Bridge	*>Label>Bridge
*C:	*C:	*C:	*	*C:	*	*C:	*	*C:	*	*	*C:	*C:	*C:
1-III	E-:maj	1r	.	1r	.	1r	.	1r	.	.	175.022	newline	guitar
=53	=53	=53	=53	=53	=53	=53	=53	=53	=53	=53	=53	=53	=53
1-III	E-:maj	1r	.	1r	.	1r	.	1r	.	.	178.433	.	guitar
=54	=54	=54	=54	=54	=54	=54	=54	=54	=54	=54	=54	=54	=54
2I	C:sus2	1r	.	1r	.	1r	.	1r	.	.	181.843	.	guitar
2I	C:maj	.	.	.	.	.	.	.	.	.	183.549	.	guitar
=55	=55	=55	=55	=55	=55	=55	=55	=55	=55	=55	=55	=55	=55
2I	C:sus2	1r	.	1r	.	1r	.	1r	.	.	185.254	.	guitar
2I	C:maj	.	.	.	.	.	.	.	.	.	186.959	.	guitar
=56	=56	=56	=56	=56	=56	=56	=56	=56	=56	=56	=56	=56	=56
1-III	E-:maj	1r	.	1r	.	1r	.	1r	.	.	188.665	newline	guitar
=57	=57	=57	=57	=57	=57	=57	=57	=57	=57	=57	=57	=57	=57
1-III	E-:maj	1r	.	1r	.	1r	.	1r	.	.	191.415	.	guitar
=58	=58	=58	=58	=58	=58	=58	=58	=58	=58	=58	=58	=58	=58
2I	C:sus2	1r	.	1r	.	1r	.	1r	.	.	194.165	.	guitar
2I	C:maj	.	.	.	.	.	.	.	.	.	195.54	.	guitar
=59	=59	=59	=59	=59	=59	=59	=59	=59	=59	=59	=59	=59	=59
1-VII	B-:maj	1r	.	1r	.	1r	.	1r	.	.	196.916	.	guitar
=60	=60	=60	=60	=60	=60	=60	=60	=60	=60	=60	=60	=60	=60
1-VI	A-:maj	1r	.	1r	.	1r	.	1r	.	.	199.666	.	guitar
=61	=61	=61	=61	=61	=61	=61	=61	=61	=61	=61	=61	=61	=61
1ic	C:min(9)/5	1r	.	1r	.	1r	.	1r	.	.	202.416	newline	strings
=62	=62	=62	=62	=62	=62	=62	=62	=62	=62	=62	=62	=62	=62
2IV	F:sus2(b7)	1r	.	1r	.	1r	.	1r	.	.	205.843	.	strings
2IV	F:maj	.	.	.	.	.	.	.	.	.	207.556	.	strings
=63	=63	=63	=63	=63	=63	=63	=63	=63	=63	=63	=63	=63	=63
2-III	E-:maj	1r	.	1r	.	1r	.	1r	.	.	209.269	.	strings
2ib	C:min6/b3	.	.	.	.	.	.	.	.	.	210.982	.	strings
=64	=64	=64	=64	=64	=64	=64	=64	=64	=64	=64	=64	=64	=64
2ii	D:min	1r	.	1r	.	1r	.	1r	.	.	216.122	newline	strings
2ii	D:min(9)	.	.	.	.	.	.	.	.	.	217.841	.	strings
=65	=65	=65	=65	=65	=65	=65	=65	=65	=65	=65	=65	=65	=65
2i	C:sus4(9)	1r	.	1r	.	1r	.	1r	.	.	219.559	.	strings
2i	C:min	.	.	.	.	.	.	.	.	.	221.278	.	strings
=66	=66	=66	=66	=66	=66	=66	=66	=66	=66	=66	=66	=66	=66
2-VII7	B-:maj7	1r	.	1r	.	1r	.	1r	.	.	222.996	.	strings
2-VII	B-:maj(9)	.	.	.	.	.	.	.	.	.	224.714	.	strings
=67	=67	=67	=67	=67	=67	=67	=67	=67	=67	=67	=67	=67	=67
1-VI7	A-:maj7	1r	.	1r	.	1r	.	1r	.	.	226.433	.	strings
=68	=68	=68	=68	=68	=68	=68	=68	=68	=68	=68	=68	=68	=68
1V	G:maj	1r	.	1r	.	1r	.	1r	.	.	229.87	newline	strings
=69	=69	=69	=69	=69	=69	=69	=69	=69	=69	=69	=69	=69	=69
*>Letter>B	*>Letter>B	*>Letter>B	*>Letter>B	*>Letter>B	*>Letter>B	*>Letter>B	*>Letter>B	*>Letter>B	*>Letter>B	*>Letter>B	*>Letter>B	*>Letter>B	*>Letter>B
*>Label>Verse	*>Label>Verse	*>Label>Verse	*>Label>Verse	*>Label>Verse	*>Label>Verse	*>Label>Verse	*>Label>Verse	*>Label>Verse	*>Label>Verse	*>Label>Verse	*>Label>Verse	*>Label>Verse	*>Label>Verse
2V	G:maj	4.r	.	1r	.	1r	.	1r	.	.	232.362	newline	voice
.	.	16B	If	.	.	.	.	.	.	.	.	.	.
.	.	16B	you	.	.	.	.	.	.	.	.	.	.
2V	G:maj(9)	8d	o-	.	.	.	.	.	.	.	234.077	.	voice
.	.	16B	-pen	.	.	.	.	.	.	.	.	.	.
.	.	16B	your	.	.	.	.	.	.	.	.	.	.
.	.	8d	mind	.	.	.	.	.	.	.	.	.	.
.	.	16e	for	.	.	.	.	.	.	.	.	.	.
.	.	[16d	me	.	.	.	.	.	.	F	.	.	.
=70	=70	=70	=70	=70	=70	=70	=70	=70	=70	=70	=70	=70	=70
2V	G:maj	8d]	_	1r	.	1r	.	1r	.	.	235.791	.	voice
.	.	8r	.	.	.	.	.	.	.	.	.	.	.
.	.	8.r	.	.	.	.	.	.	.	.	.	.	.
.	.	16~G	You	.	.	.	.	.	.	.	.	.	.
2V	G:maj(9)	8d	won't	.	.	.	.	.	.	.	237.505	.	voice
.	.	16d	re-	.	.	.	.	.	.	.	.	.	.
.	.	8.d	-ly	.	.	.	.	.	.	.	.	.	.
.	.	8e	on	.	.	.	.	.	.	.	.	.	.
=71	=71	=71	=71	=71	=71	=71	=71	=71	=71	=71	=71	=71	=71
2iii7	E:min9	16B	o-	1r	.	1r	.	1r	.	.	239.22	.	voice
.	.	16B	-pen	.	.	.	.	.	.	.	.	.	.
.	.	[8B	eyes	.	.	.	.	.	.	.	.	.	.
.	.	8B]	_	.	.	.	.	.	.	.	.	.	.
.	.	16B	to	.	.	.	.	.	.	.	.	.	.
.	.	[16B	see	.	.	.	.	.	.	F	.	.	.
2iii7	E:min7	4B]	_	.	.	.	.	.	.	.	240.934	.	voice
.	.	4r	.	.	.	.	.	.	.	.	.	.	.
=72	=72	=72	=72	=72	=72	=72	=72	=72	=72	=72	=72	=72	=72
2iii7	E:min9	1r	.	1r	.	1r	.	1r	.	.	242.649	.	voice
2iii7	E:min7	.	.	.	.	.	.	.	.	.	244.363	.	voice
=73	=73	=73	=73	=73	=73	=73	=73	=73	=73	=73	=73	=73	=73
2V	G:maj	8.r	.	1r	.	1r	.	1r	.	.	246.078	newline	voice
.	.	16BB	The	.	.	.	.	.	.	.	.	.	.
.	.	8d	walls	.	.	.	.	.	.	.	.	.	.
.	.	8B	you	.	.	.	.	.	.	.	.	.	.
2V	G:maj(9)	8d	built	.	.	.	.	.	.	.	247.794	.	voice
.	.	16e	with-	.	.	.	.	.	.	.	.	.	.
.	.	16d	-in	.	.	.	.	.	.	h	.	.	.
.	.	16c	_	.	.	.	.	.	.	.	.	.	.
.	.	8.B	_	.	.	.	.	.	.	.	.	.	.
=74	=74	=74	=74	=74	=74	=74	=74	=74	=74	=74	=74	=74	=74
2V	G:maj	4r	.	1r	.	1r	.	1r	.	.	249.511	.	voice
.	.	8r	.	.	.	.	.	.	.	.	.	.	.
.	.	8B	come	.	.	.	.	.	.	.	.	.	.
2V	G:maj(9)	8g	tum-	.	.	.	.	.	.	.	251.227	.	voice
.	.	16f#	-bling	.	.	.	.	.	.	.	.	.	.
.	.	8.e	down	.	.	.	.	.	.	.	.	.	.
.	.	16f#	and	.	.	.	.	.	.	.	.	.	.
.	.	16f#	a	.	.	.	.	.	.	.	.	.	.
=75	=75	=75	=75	=75	=75	=75	=75	=75	=75	=75	=75	=75	=75
2iii7	E:min9	8g	new	1r	.	1r	.	1r	.	.	252.943	.	voice
.	.	8f#	world	.	.	.	.	.	.	.	.	.	.
.	.	8e	will	.	.	.	.	.	.	.	.	.	.
.	.	16f#	be-	.	.	.	.	.	.	.	.	.	.
.	.	[16e	-gin	.	.	.	.	.	.	h	.	.	.
2iii7	E:min7	4e]	_	.	.	.	.	.	.	.	254.66	.	voice
.	.	4r	.	.	.	.	.	.	.	.	.	.	.
=76	=76	=76	=76	=76	=76	=76	=76	=76	=76	=76	=76	=76	=76
2iii7	E:min9	1r	.	1r	.	1r	.	1r	.	.	256.376	.	voice
2iii7	E:min7	.	.	.	.	.	.	.	.	.	258.093	.	voice
=77	=77	=77	=77	=77	=77	=77	=77	=77	=77	=77	=77	=77	=77
2I	C:maj	4r	.	1r	.	1r	.	1r	.	.	259.809	newline	voice
.	.	8e	Li-	.	.	.	.	.	.	.	.	.	.
.	.	8d	-ving	.	.	.	.	.	.	.	.	.	.
2I	C:maj(9)	8e	twice	.	.	.	.	.	.	.	261.518	.	voice
.	.	16d	at	.	.	.	.	.	.	.	.	.	.
.	.	8.e	once	.	.	.	.	.	.	.	.	.	.
.	.	16f#	you	.	.	.	.	.	.	.	.	.	.
.	.	[16e	learn	.	.	.	.	.	.	.	.	.	.
=78	=78	=78	=78	=78	=78	=78	=78	=78	=78	=78	=78	=78	=78
2I	C:maj	8e]	_	1r	.	1r	.	1r	.	.	263.226	.	voice
.	.	8r	.	.	.	.	.	.	.	.	.	.	.
.	.	8.r	.	.	.	.	.	.	.	.	.	.	.
.	.	16e	You're	.	.	.	.	.	.	.	.	.	.
2I	C:maj(9)	8e	safe	.	.	.	.	.	.	.	264.935	.	voice
.	.	16d	from	.	.	.	.	.	.	.	.	.	.
.	.	16e	pain	.	.	.	.	.	.	D	.	.	.
.	.	8d	_	.	.	.	.	.	.	.	.	.	.
.	.	16d	in	.	.	.	.	.	.	.	.	.	.
.	.	16d	the	.	.	.	.	.	.	.	.	.	.
=79	=79	=79	=79	=79	=79	=79	=79	=79	=79	=79	=79	=79	=79
2vi7	A:min7	8e	dream	1r	.	1r	.	1r	.	.	266.644	.	voice
.	.	16e	do-	.	.	.	.	.	.	.	.	.	.
.	.	16e	-main	.	.	.	.	.	.	D	.	.	.
.	.	8d	_	.	.	.	.	.	.	.	.	.	.
.	.	16r	.	.	.	.	.	.	.	.	.	.	.
.	.	16G	A	.	.	.	.	.	.	.	.	.	.
2vi7	A:min11	8c	soul	.	.	.	.	.	.	.	268.353	.	voice
.	.	8c	set	.	.	.	.	.	.	.	.	.	.
.	.	16c	free	.	.	.	.	.	.	.	.	.	.
.	.	16d	to	.	.	.	.	.	.	.	.	.	.
.	.	[8A	fly	.	.	.	.	.	.	A	.	.	.
=80	=80	=80	=80	=80	=80	=80	=80	=80	=80	=80	=80	=80	=80
2vi7	A:min7	4A]	_	1r	.	1r	.	1r	.	.	270.061	.	voice
.	.	4r	.	.	.	.	.	.	.	.	.	.	.
2vi7	A:min11	2r	.	.	.	.	.	.	.	.	271.77	.	voice
=81	=81	=81	=81	=81	=81	=81	=81	=81	=81	=81	=81	=81	=81
2I	C:maj	8.r	.	1r	.	1r	.	1r	.	.	273.479	newline	voice
.	.	16~G	A	.	.	.	.	.	.	.	.	.	.
.	.	8e	round	.	.	.	.	.	.	.	.	.	.
.	.	8d	trip	.	.	.	.	.	.	.	.	.	.
2I	C:maj(9)	8e	jour-	.	.	.	.	.	.	.	275.203	.	voice
.	.	16d	-ney	.	.	.	.	.	.	.	.	.	.
.	.	8.e	in	.	.	.	.	.	.	.	.	.	.
.	.	16f#	your	.	.	.	.	.	.	.	.	.	.
.	.	[16e	head	.	.	.	.	.	.	.	.	.	.
=82	=82	=82	=82	=82	=82	=82	=82	=82	=82	=82	=82	=82	=82
2I	C:maj	4e]	_	1r	.	1r	.	1r	.	.	276.928	.	voice
.	.	4r	.	.	.	.	.	.	.	.	.	.	.
2I	C:maj(9)	8g	Mas-	.	.	.	.	.	.	.	278.652	.	voice
.	.	16g	-ter	.	.	.	.	.	.	.	.	.	.
.	.	8.g	of	.	.	.	.	.	.	.	.	.	.
.	.	16g	i-	.	.	.	.	.	.	.	.	.	.
.	.	[16a	-llu-	.	.	.	.	.	.	.	.	.	.
=83	=83	=83	=83	=83	=83	=83	=83	=83	=83	=83	=83	=83	=83
2vi7	A:min7	8a]	_	1r	.	1r	.	1r	.	.	280.376	.	voice
.	.	8a	-sion	.	.	.	.	.	.	.	.	.	.
.	.	8.a	can	.	.	.	.	.	.	.	.	.	.
.	.	16d	you	.	.	.	.	.	.	.	.	.	.
2vi7	A:min11	8e	re-	.	.	.	.	.	.	.	282.101	.	voice
.	.	16f#	-a-	.	.	.	.	.	.	.	.	.	.
.	.	8.e	-lize	.	.	.	.	.	.	A	.	.	.
.	.	16r	.	.	.	.	.	.	.	.	.	.	.
.	.	16d	your	.	.	.	.	.	.	.	.	.	.
=84	=84	=84	=84	=84	=84	=84	=84	=84	=84	=84	=84	=84	=84
1vi7	A:min7	8e	dream's	1r	.	1r	.	1r	.	.	283.825	.	voice
.	.	16f#	a-	.	.	.	.	.	.	.	.	.	.
.	.	8e	-live	.	.	.	.	.	.	A	.	.	.
.	.	16r	.	.	.	.	.	.	.	.	.	.	.
.	.	16d	You	.	.	.	.	.	.	.	.	.	.
.	.	16d	can	.	.	.	.	.	.	.	.	.	.
.	.	16e	be	.	.	.	.	.	.	.	.	.	.
.	.	16d	_	.	.	.	.	.	.	.	.	.	.
.	.	16c	the	.	.	.	.	.	.	.	.	.	.
.	.	16c	guide	.	.	.	.	.	.	A	.	.	.
.	.	8B	_	.	.	.	.	.	.	.	.	.	.
.	.	8B	but	.	.	.	.	.	.	.	.	.	.
=85	=85	=85	=85	=85	=85	=85	=85	=85	=85	=85	=85	=85	=85
*>Letter>C	*>Letter>C	*>Letter>C	*>Letter>C	*>Letter>C	*>Letter>C	*>Letter>C	*>Letter>C	*>Letter>C	*>Letter>C	*>Letter>C	*>Letter>C	*>Letter>C	*>Letter>C
*>Label>Chorus	*>Label>Chorus	*>Label>Chorus	*>Label>Chorus	*>Label>Chorus	*>Label>Chorus	*>Label>Chorus	*>Label>Chorus	*>Label>Chorus	*>Label>Chorus	*>Label>Chorus	*>Label>Chorus	*>Label>Chorus	*>Label>Chorus
1II	D:maj	1r	.	1f#	I	1d	I	1r	.	.	287.274	newline	voice
=86	=86	=86	=86	=86	=86	=86	=86	=86	=86	=86	=86	=86	=86
1I	C:maj6(9)	4r	.	4g	_	4c	_	1r	.	.	290.686	.	voice
.	.	8r	.	4r	.	4r	.	.	.	.	.	.	.
.	.	16c	will	.	.	.	.	.	.	.	.	.	.
.	.	16e	be	.	.	.	.	.	.	.	.	.	.
.	.	8e	watch-	2r	.	2r	.	.	.	.	.	.	.
.	.	16e	-ing	.	.	.	.	.	.	.	.	.	.
.	.	8.d	o-	.	.	.	.	.	.	.	.	.	.
.	.	16c	-ver	.	.	.	.	.	.	.	.	.	.
.	.	[16d	you	.	.	.	.	.	.	G	.	.	.
=87	=87	=87	=87	=87	=87	=87	=87	=87	=87	=87	=87	=87	=87
1II	D:maj	16d]	_	1f#	I	1d	I	1r	.	.	294.098	.	voice
.	.	16c	_	.	.	.	.	.	.	.	.	.	.
.	.	8B	_	.	.	.	.	.	.	.	.	.	.
.	.	4r	.	.	.	.	.	.	.	.	.	.	.
.	.	2r	.	.	.	.	.	.	.	.	.	.	.
=88	=88	=88	=88	=88	=88	=88	=88	=88	=88	=88	=88	=88	=88
1I	C:maj6(9)	4r	.	4g	_	4c	_	1r	.	.	297.51	.	voice
.	.	16r	.	4r	.	4r	.	.	.	.	.	.	.
.	.	16~G	am	.	.	.	.	.	.	.	.	.	.
.	.	16e	gon-	.	.	.	.	.	.	.	.	.	.
.	.	16e	-na	.	.	.	.	.	.	.	.	.	.
.	.	8.e	help	2r	.	2r	.	.	.	.	.	.	.
.	.	16d	you	.	.	.	.	.	.	.	.	.	.
.	.	8d	see	.	.	.	.	.	.	.	.	.	.
.	.	16c	it	.	.	.	.	.	.	.	.	.	.
.	.	[16d	through	.	.	.	.	.	.	G	.	.	.
=89	=89	=89	=89	=89	=89	=89	=89	=89	=89	=89	=89	=89	=89
1II	D:maj	16d]	_	1f#	I	1d	I	1r	.	.	300.921	newline	voice
.	.	16e	_	.	.	.	.	.	.	.	.	.	.
.	.	8f#	_	.	.	.	.	.	.	.	.	.	.
.	.	4r	.	.	.	.	.	.	.	.	.	.	.
.	.	2r	.	.	.	.	.	.	.	.	.	.	.
=90	=90	=90	=90	=90	=90	=90	=90	=90	=90	=90	=90	=90	=90
1I	C:maj6(9)	4r	.	4g	_	4c	_	1r	.	.	304.694	.	voice
.	.	8r	.	4r	.	4r	.	.	.	.	.	.	.
.	.	16c	Will	.	.	.	.	.	.	.	.	.	.
.	.	16e	pro-	.	.	.	.	.	.	.	.	.	.
.	.	8e	-tect	2r	.	2r	.	.	.	.	.	.	.
.	.	8e	you	.	.	.	.	.	.	.	.	.	.
.	.	8e	in	.	.	.	.	.	.	.	.	.	.
.	.	16f#	the	.	.	.	.	.	.	.	.	.	.
.	.	[16d	night	.	.	.	.	.	.	F	.	.	.
=91	=91	=91	=91	=91	=91	=91	=91	=91	=91	=91	=91	=91	=91
1II	D:maj	16d]	_	1f#	I	1d	I	4r	.	.	308.467	.	voice
.	.	16c	_	.	.	.	.	.	.	.	.	.	.
.	.	4B	_	.	.	.	.	.	.	.	.	.	.
.	.	.	.	.	.	.	.	2a	I	.	.	.	.
.	.	8r	.	.	.	.	.	.	.	.	.	.	.
.	.	2r	.	.	.	.	.	.	.	.	.	.	.
.	.	.	.	.	.	.	.	16a	I	.	.	.	.
.	.	.	.	.	.	.	.	16b	_	.	.	.	.
.	.	.	.	.	.	.	.	16a	_	.	.	.	.
.	.	.	.	.	.	.	.	[16g	_	.	.	.	.
=92	=92	=92	=92	=92	=92	=92	=92	=92	=92	=92	=92	=92	=92
1I	C:maj6(9)	4r	.	4g	_	4c	_	4g]	_	.	312.24	.	voice
.	.	8.r	.	4r	.	4r	.	4r	.	.	.	.	.
.	.	16~D	am	.	.	.	.	.	.	.	.	.	.
.	.	16c	smi-	2r	.	2r	.	2r	.	.	.	.	.
.	.	16B	_	.	.	.	.	.	.	.	.	.	.
.	.	8B	-ling	.	.	.	.	.	.	.	.	.	.
.	.	8G	next	.	.	.	.	.	.	.	.	.	.
.	.	16E	to	.	.	.	.	.	.	.	.	.	.
.	.	[16G	you	.	.	.	.	.	.	G	.	.	.
=93	=93	=93	=93	=93	=93	=93	=93	=93	=93	=93	=93	=93	=93
1I	C:maj6(9)	2G]	_	1r	.	1r	.	1r	.	.	316.012	.	voice
.	.	2r	.	.	.	.	.	.	.	.	.	.	.
=94	=94	=94	=94	=94	=94	=94	=94	=94	=94	=94	=94	=94	=94
*>Letter>A	*>Letter>A	*>Letter>A	*>Letter>A	*>Letter>A	*>Letter>A	*>Letter>A	*>Letter>A	*>Letter>A	*>Letter>A	*>Letter>A	*>Letter>A	*>Letter>A	*>Letter>A
*>Label>Outro	*>Label>Outro	*>Label>Outro	*>Label>Outro	*>Label>Outro	*>Label>Outro	*>Label>Outro	*>Label>Outro	*>Label>Outro	*>Label>Outro	*>Label>Outro	*>Label>Outro	*>Label>Outro	*>Label>Outro
2V	G:maj	1r	.	1r	.	1r	.	1r	.	.	319.785	newline	guitar
2V	G:maj(9)	.	.	.	.	.	.	.	.	.	321.504	.	guitar
=95	=95	=95	=95	=95	=95	=95	=95	=95	=95	=95	=95	=95	=95
2V	G:maj	1r	.	1r	.	1r	.	1r	.	.	323.223	.	guitar
2V	G:maj(9)	.	.	.	.	.	.	.	.	.	324.941	.	guitar
=96	=96	=96	=96	=96	=96	=96	=96	=96	=96	=96	=96	=96	=96
2V	G:maj	1r	.	1r	.	1r	.	1r	.	.	326.66	.	guitar
2V	G:maj(9)	.	.	.	.	.	.	.	.	.	328.379	.	guitar
=97	=97	=97	=97	=97	=97	=97	=97	=97	=97	=97	=97	=97	=97
2V	G:maj	1r	.	1r	.	1r	.	1r	.	.	330.098	.	guitar
2V	G:maj(9)	.	.	.	.	.	.	.	.	.	331.817	.	guitar
=98	=98	=98	=98	=98	=98	=98	=98	=98	=98	=98	=98	=98	=98
2V	G:maj	1r	.	1r	.	1r	.	1r	.	.	333.535	newline	guitar
2V	G:maj(9)	.	.	.	.	.	.	.	.	.	335.238	.	guitar
=99	=99	=99	=99	=99	=99	=99	=99	=99	=99	=99	=99	=99	=99
1V	G:maj	1r	.	1r	.	1r	.	1r	.	.	336.94	.	guitar
1r;	N	r;	.	r;	.	r;	.	r;	.	.	345.025	.	r
1r;	N	r;	.	r;	.	r;	.	r;	.	.	347.82	.	r
*-	*-	*-	*-	*-	*-	*-	*-	*-	*-	*-	*-	*-	*-
!!!BillboardChartDate: 1991/06/08, 1991/05/11
!!!BillboardPeak: 9, 9
!!!BillboardWeeksOnChart: 17, 17
!!!COC: Queensryche
!!!EMD: Algorithm for some reason called this G minor; as a result labelled some G5 as Gm which are in fact GM. Corrected the interpretation to G major, and 5 chord qualities. - Nat Condit-Schultz, 2017-01-25
!!!EMD: There was an extra measure in the bridge section.
!!!ENC: Nathaniel Condit-Schultz
!!!EST: Awating manual error checking and editing.
!!!OTL: Silent Lucidity
!!!RDF**harte: Chris Harte's syntax, used by MIREX
!!!RDF**harmony: **recip + pitch class of root + harmonic quality
!!!RDF**leadinstrument: original McGill primary instrumentation annotation
!!!RDF**phrase: newline = linebreak in original McGill transcription
!!!RDF**timestamp: McGill audio timestamp in seconds
!!!RDT: 2017/01/12/
!!!SampleActualRank: 12, 11
!!!SampleID#: 670, 685
!!!SampleTargetRank: 10, 10
!!!MBID: fd7b1884-f40b-4105-aa1b-9bad31063ca3
